X: 1
T: Irish, The
M: 3/4
L: 1/8
R: waltz
K: Ador
DD|E2 A2 AB|c3 d ec|dB G3 B|AF D3 D|
E2 A2 AB| cd e2 cA|dB G3 B|A4 :| 
eg|a2 ag ea|g2 e2 cd|ef g2 fe|dB G2 =F2|
E2 ABcd|e2 c3 A|dB G3 G|A4 :|
